X: 9
T:9.  Flat Feet and Blood Shot Eyes (edae tuning)
C:c 2003 Harry Bolick  
R:Breakdown
O:United States
A:Hastings On Hudson, New York
M:2/4
L:1/8
Q:180
K:G
 |: "Em"  EE/2E/2 E(E|E) (B/2d/2) (B/2A/2)G| "A-no3rd"A3 G|(B/2A/2)(B/2d/2) (B/2A/2)G |
"Em" EEE(E |E) (B/2d/2) (B/2A/2)G| "A-no3rd" AA B/2A/2B/2d/2| (B/2A/2)(G/2D/2) "Em" E2:|
Ee2e|(b/2g/2e/2)d/2 Bd|"G" g"D" f2e|"G" g("D"f/2g/2 f/2e/2)(d/2A/2)|
"Em" Ee2e|(b/2g/2e/2)d/2 Bd|"G" g"D" f2g|"Em"e4 :|
